apps/symbolic/system-software-install-symbolic.svg

<?xml version="1.0" encoding="UTF-8" standalone="no"?>
<svg
   id="svg4434"
   height="16"
   width="16"
   version="1.1"
   xml:space="preserve"
   xmlns:xlink="http://www.w3.org/1999/xlink"
   xmlns="http://www.w3.org/2000/svg"
   xmlns:svg="http://www.w3.org/2000/svg"
   xmlns:rdf="http://www.w3.org/1999/02/22-rdf-syntax-ns#"
   xmlns:cc="http://creativecommons.org/ns#"
   xmlns:dc="http://purl.org/dc/elements/1.1/"><defs
     id="defs4436"><linearGradient
       id="linearGradient41"><stop
         style="stop-color:#ed5353;stop-opacity:1;"
         offset="0"
         id="stop41" /><stop
         style="stop-color:#c6262e;stop-opacity:1;"
         offset="1"
         id="stop42" /></linearGradient><linearGradient
       xlink:href="#linearGradient41"
       id="linearGradient42"
       x1="68"
       y1="25.841551"
       x2="68"
       y2="118.5"
       gradientUnits="userSpaceOnUse" /></defs><metadata
     id="metadata4439"><rdf:RDF><cc:Work
         rdf:about=""><dc:format>image/svg+xml</dc:format><dc:type
           rdf:resource="http://purl.org/dc/dcmitype/StillImage" /></cc:Work></rdf:RDF></metadata><g
     id="g41"
     style="fill:url(#linearGradient42);fill-opacity:1;stroke:none;stroke-width:3.9999984;stroke-dasharray:none"
     transform="matrix(0.2500001,0,0,0.2500001,3.9999965,4.4410896)" /><g
     id="g15"
     transform="matrix(0.67500027,0,0,0.13889005,38.30001,28.163851)"
     style="stroke-width:3.26597202;stroke-dasharray:none"><g
       id="g14"
       transform="matrix(1.0526,0,0,1.2857,-1.2632,-13.429)"
       style="opacity:0.4;stroke-width:2.80744305;stroke-dasharray:none" /></g><g
     id="g12"
     transform="matrix(0.11666673,0,0,0.11666673,0.39999603,-0.49446373)"
     style="stroke-width:8.57142"><path
       id="rect4"
       style="color:#000000;fill:#555761;stroke-linecap:round;stroke-linejoin:round;-inkscape-stroke:none"
       d="M 23.407387 21.381106 C 18.112361 21.381106 13.714312 25.779154 13.714312 31.074181 L 13.714312 59.952514 A 4.2857099 4.2857099 0 0 0 18.000024 64.238226 A 4.2857099 4.2857099 0 0 0 22.285736 59.952514 L 22.285736 31.074181 C 22.285736 30.375657 22.708864 29.95253 23.407387 29.95253 L 39.428584 29.95253 L 39.428584 47.095378 L 56.571432 47.095378 L 56.571432 29.95253 L 72.592629 29.95253 C 73.291152 29.95253 73.71428 30.375657 73.71428 31.074181 L 73.71428 59.952514 A 4.2857099 4.2857099 0 0 0 77.999992 64.238226 A 4.2857099 4.2857099 0 0 0 82.285704 59.952514 L 82.285704 31.074181 C 82.285704 25.779154 77.887655 21.381106 72.592629 21.381106 L 23.407387 21.381106 z " /></g><path
     id="rect3"
     style="fill:#555761;fill-opacity:1;stroke:none;stroke-width:1;stroke-linejoin:round;stroke-dasharray:none;stroke-opacity:1"
     d="M 9,5 V 8 H 2 C 1.3851596,8 1,8.3344297 1,9 v 2 c 0,0.674523 0.4143215,1 1,1 v 1 h 1 c 0,1.098644 0.9013561,2 2,2 1.0986439,0 2,-0.901356 2,-2 h 2 c 0,1.098644 0.9013561,2 2,2 0.735195,0 1.381,-0.403718 1.728516,-1 h 1.105468 C 14.49217,14 15,13.375971 15,12.738281 V 10 H 12 V 6 h 2.970703 C 14.855403,5.4640081 14.400994,5 13.833984,5 Z m -4,7 c 0.5582053,0 1,0.441795 1,1 0,0.558205 -0.4417947,1 -1,1 -0.5582053,0 -1,-0.441795 -1,-1 0,-0.558205 0.4417947,-1 1,-1 z m 6,0 c 0.558205,0 1,0.441795 1,1 0,0.558205 -0.441795,1 -1,1 -0.558205,0 -1,-0.441795 -1,-1 0,-0.558205 0.441795,-1 1,-1 z" /></svg>

<?xml version="1.0" encoding="UTF-8" standalone="no"?>
<svg
   id="svg4434"
   height="16"
   width="16"
   version="1.1"
   xml:space="preserve"
   xmlns:xlink="http://www.w3.org/1999/xlink"
   xmlns="http://www.w3.org/2000/svg"
   xmlns:svg="http://www.w3.org/2000/svg"
   xmlns:rdf="http://www.w3.org/1999/02/22-rdf-syntax-ns#"
   xmlns:cc="http://creativecommons.org/ns#"
   xmlns:dc="http://purl.org/dc/elements/1.1/"><defs
     id="defs4436"><linearGradient
       id="linearGradient41"><stop
         style="stop-color:#ed5353;stop-opacity:1;"
         offset="0"
         id="stop41" /><stop
         style="stop-color:#c6262e;stop-opacity:1;"
         offset="1"
         id="stop42" /></linearGradient><linearGradient
       xlink:href="#linearGradient41"
       id="linearGradient42"
       x1="68"
       y1="25.841551"
       x2="68"
       y2="118.5"
       gradientUnits="userSpaceOnUse" /></defs><metadata
     id="metadata4439"><rdf:RDF><cc:Work
         rdf:about=""><dc:format>image/svg+xml</dc:format><dc:type
           rdf:resource="http://purl.org/dc/dcmitype/StillImage" /></cc:Work></rdf:RDF></metadata><g
     id="g41"
     style="fill:url(#linearGradient42);fill-opacity:1;stroke:none;stroke-width:3.9999984;stroke-dasharray:none"
     transform="matrix(0.2500001,0,0,0.2500001,3.9999965,4.4410896)" /><g
     id="g15"
     transform="matrix(0.67500027,0,0,0.13889005,38.30001,28.163851)"
     style="stroke-width:3.26597202;stroke-dasharray:none"><g
       id="g14"
       transform="matrix(1.0526,0,0,1.2857,-1.2632,-13.429)"
       style="opacity:0.4;stroke-width:2.80744305;stroke-dasharray:none" /></g><g
     id="g12"
     transform="matrix(0.11666673,0,0,0.11666673,0.39999603,-0.49446373)"
     style="stroke-width:8.57142"><path
       id="rect4"
       style="color:#000000;fill:#555761;stroke-linecap:round;stroke-linejoin:round;-inkscape-stroke:none"
       d="M 23.407387 21.381106 C 18.112361 21.381106 13.714312 25.779154 13.714312 31.074181 L 13.714312 59.952514 A 4.2857099 4.2857099 0 0 0 18.000024 64.238226 A 4.2857099 4.2857099 0 0 0 22.285736 59.952514 L 22.285736 31.074181 C 22.285736 30.375657 22.708864 29.95253 23.407387 29.95253 L 39.428584 29.95253 L 39.428584 47.095378 L 56.571432 47.095378 L 56.571432 29.95253 L 72.592629 29.95253 C 73.291152 29.95253 73.71428 30.375657 73.71428 31.074181 L 73.71428 59.952514 A 4.2857099 4.2857099 0 0 0 77.999992 64.238226 A 4.2857099 4.2857099 0 0 0 82.285704 59.952514 L 82.285704 31.074181 C 82.285704 25.779154 77.887655 21.381106 72.592629 21.381106 L 23.407387 21.381106 z " /></g><path
     id="rect3"
     style="fill:#555761;fill-opacity:1;stroke:none;stroke-width:1;stroke-linejoin:round;stroke-dasharray:none;stroke-opacity:1"
     d="M 11 5 L 11 8 L 1 8 L 1 12 L 3.2714844 12 C 3.0996881 12.294776 3 12.636551 3 13 C 3 14.098645 3.901355 15 5 15 C 6.098645 15 7 14.098645 7 13 C 7 12.636551 6.9003119 12.294776 6.7285156 12 L 9.2714844 12 C 9.0996881 12.294776 9 12.636551 9 13 C 9 14.098645 9.901355 15 11 15 C 11.735196 15 12.381 14.596283 12.728516 14 L 13.833984 14 C 14.49217 14 15 13.375971 15 12.738281 L 15 9 L 13 9 L 13 6 L 14.970703 6 C 14.855403 5.4640076 14.400994 5 13.833984 5 L 11 5 z M 5 12 C 5.5582059 12 6 12.441794 6 13 C 6 13.558206 5.5582059 14 5 14 C 4.4417941 14 4 13.558206 4 13 C 4 12.441794 4.4417941 12 5 12 z M 11 12 C 11.558206 12 12 12.441794 12 13 C 12 13.558206 11.558206 14 11 14 C 10.441794 14 10 13.558206 10 13 C 10 12.441794 10.441794 12 11 12 z " /></svg>
